X: 1
T: the Way to Judique
C: Winston Fitzgerald
B: Winston Fitzgerald, "A Collection of Fiddle Tunes"
R: jig
B: BSFC Session Tune Book
Z: 2019 John Chambers <jc:trillian.mit.edu>
M: 6/8
L: 1/8
K: A
f !segno!|\
"A"efe Tc2d | "A"efe Tc2e | "E7"dcd B2c | d3 {e}dcd  | "A"efe ce=g | fef dfa |
"E7"g2b gfg | a3 [a2c2] :| {^a}b |: "A"agf edc | "E7"Bcd "D"Tf2e | "A"cde Ta2e |
"A"cde "D"Tf2g | {b}agf edc | Bcd f2a | "E7"efe dcB |1 "A"A3 {efg}a3 :|2 "A"A3 Ac!segno!d |]
